storage/app/icons/phosphoricons/light/onigiri-light.svg

<svg xmlns="http://www.w3.org/2000/svg" fill="currentColor" viewBox="0 0 256 256"><path d="M229.82 147.6 174 51.67l-.09-.15a54 54 0 0 0-91.74 0l-.09.15-55.9 95.93A54 54 0 0 0 72.09 230h111.82a54 54 0 0 0 45.91-82.4M162 218H94v-50a2 2 0 0 1 2-2h64a2 2 0 0 1 2 2Zm58.61-21.58a41.47 41.47 0 0 1-36.7 21.58H174v-50a14 14 0 0 0-14-14H96a14 14 0 0 0-14 14v50h-9.91a42 42 0 0 1-35.67-64.15l.08-.14 55.87-95.93a42 42 0 0 1 71.26 0l55.87 95.93.08.14a41.48 41.48 0 0 1 1.02 42.57Z"/></svg>

<svg xmlns="http://www.w3.org/2000/svg" viewBox="0 0 256 256" fill="currentColor"><path d="M229.82,147.6,174,51.67l-.09-.15a54,54,0,0,0-91.74,0l-.09.15L26.18,147.6A54,54,0,0,0,72.09,230H183.91a54,54,0,0,0,45.91-82.4ZM162,218H94V168a2,2,0,0,1,2-2h64a2,2,0,0,1,2,2Zm58.61-21.58A41.47,41.47,0,0,1,183.91,218H174V168a14,14,0,0,0-14-14H96a14,14,0,0,0-14,14v50H72.09a42,42,0,0,1-35.67-64.15l.08-.14L92.37,57.78a42,42,0,0,1,71.26,0l55.87,95.93.08.14A41.48,41.48,0,0,1,220.6,196.42Z"/></svg>
